@extra/phlat-icons/symbolic/teamviewer.svg

<svg xmlns="http://www.w3.org/2000/svg" version="1.1" viewBox="0 0 16 16"><path stroke-width=".33333" fill="#f1f2f2" d="m2.334 1c-0.7387 0-1.334 0.5953-1.334 1.334v11.332c0 0.739 0.5953 1.334 1.334 1.334h11.332c0.739 0 1.334-0.595 1.334-1.334v-11.332c0-0.7387-0.595-1.334-1.334-1.334h-11.332zm5.666 1a6 6 0 0 1 6 6 6 6 0 0 1 -6 6 6 6 0 0 1 -6 -6 6 6 0 0 1 6 -6zm-1 4l-3 2 3 2v-1.334h2v1.334l3-2-3-2v1.334h-2v-1.334z"/></svg>

<svg xmlns="http://www.w3.org/2000/svg" viewBox="0 0 16 16">
    <path stroke-width=".333" fill="#f1f2f2" d="M2.334 1C1.595 1 1 1.595 1 2.334v11.332C1 14.405 1.595 15 2.334 15h11.332c.739 0 1.334-.595 1.334-1.334V2.334C15 1.595 14.405 1 13.666 1H2.334zM8 2a6 6 0 0 1 6 6 6 6 0 0 1-6 6 6 6 0 0 1-6-6 6 6 0 0 1 6-6zM7 6L4 8l3 2V8.666h2V10l3-2-3-2v1.334H7V6z"/>
</svg>
